neru-light-classic/32x32/apps/step.svg

<svg xmlns="http://www.w3.org/2000/svg" height="32" width="32" version="1"><rect width="28.203" height="28.203" x="1.898" y="1.898" ry="5.575" fill="#63c4ad" fill-rule="evenodd"/><path d="M11 10v1h1.555l-2.389 5.094A2.5 2.5 0 0 0 9.5 16 2.5 2.5 0 0 0 7 18.5 2.5 2.5 0 0 0 9.5 21a2.5 2.5 0 0 0 2.5-2.5 2.5 2.5 0 0 0-.943-1.953L13.658 11H17v6.055a2.5 2.5 0 0 0-2 2.445 2.5 2.5 0 0 0 2.5 2.5 2.5 2.5 0 0 0 2.5-2.5 2.5 2.5 0 0 0-2-2.449V11h4v6.055a2.5 2.5 0 0 0-2 2.445 2.5 2.5 0 0 0 2.5 2.5 2.5 2.5 0 0 0 2.5-2.5 2.5 2.5 0 0 0-2-2.449V11h2v-1z" fill="#fff"/></svg>

<?xml version="1.0" encoding="UTF-8" standalone="no"?>
<svg
   xmlns:dc="http://purl.org/dc/elements/1.1/"
   xmlns:cc="http://creativecommons.org/ns#"
   xmlns:rdf="http://www.w3.org/1999/02/22-rdf-syntax-ns#"
   xmlns:svg="http://www.w3.org/2000/svg"
   xmlns="http://www.w3.org/2000/svg"
   xmlns:sodipodi="http://sodipodi.sourceforge.net/DTD/sodipodi-0.dtd"
   xmlns:inkscape="http://www.inkscape.org/namespaces/inkscape"
   height="32"
   width="32"
   version="1"
   id="svg12"
   sodipodi:docname="step.svg"
   inkscape:version="0.92.1 r">
  <metadata
     id="metadata18">
    <rdf:RDF>
      <cc:Work
         rdf:about="">
        <dc:format>image/svg+xml</dc:format>
        <dc:type
           rdf:resource="http://purl.org/dc/dcmitype/StillImage" />
      </cc:Work>
    </rdf:RDF>
  </metadata>
  <defs
     id="defs16" />
  <sodipodi:namedview
     pagecolor="#ffffff"
     bordercolor="#666666"
     borderopacity="1"
     objecttolerance="10"
     gridtolerance="10"
     guidetolerance="10"
     inkscape:pageopacity="0"
     inkscape:pageshadow="2"
     inkscape:window-width="640"
     inkscape:window-height="480"
     id="namedview14"
     showgrid="false"
     inkscape:zoom="8.375"
     inkscape:cx="-6.6865672"
     inkscape:cy="16"
     inkscape:current-layer="svg12" />
  <rect
     style="opacity:1;fill:#63c4ad;fill-opacity:1;fill-rule:evenodd;stroke:none;stroke-width:1.03534329;stroke-linecap:round;stroke-linejoin:bevel;stroke-miterlimit:4;stroke-dasharray:none;stroke-dashoffset:0;stroke-opacity:1"
     id="rect4497-3-3"
     width="28.203388"
     height="28.203388"
     x="1.8983059"
     y="1.8983059"
     ry="5.575182" />
  <path
     d="m 11,10 v 1 h 1.555 l -2.389,5.094 A 2.5,2.5 0 0 0 9.5,16 2.5,2.5 0 0 0 7,18.5 2.5,2.5 0 0 0 9.5,21 2.5,2.5 0 0 0 12,18.5 2.5,2.5 0 0 0 11.057,16.547 L 13.658,11 H 17 v 6.055 A 2.5,2.5 0 0 0 15,19.5 2.5,2.5 0 0 0 17.5,22 2.5,2.5 0 0 0 20,19.5 2.5,2.5 0 0 0 18,17.051 V 11 h 4 v 6.055 A 2.5,2.5 0 0 0 20,19.5 2.5,2.5 0 0 0 22.5,22 2.5,2.5 0 0 0 25,19.5 2.5,2.5 0 0 0 23,17.051 V 11 h 2 v -1 z"
     id="path10"
     inkscape:connector-curvature="0"
     style="fill:#ffffff" />
</svg>
